img/yt.svg

<svg xmlns="http://www.w3.org/2000/svg" xmlns:xlink="http://www.w3.org/1999/xlink" viewBox="0,0,256,256" width="32px" height="32px"><g fill="#f5deb3" fill-rule="nonzero" stroke="none" stroke-width="1" stroke-linecap="butt" stroke-linejoin="miter" stroke-miterlimit="10" stroke-dasharray="" stroke-dashoffset="0" font-family="none" font-weight="none" font-size="none" text-anchor="none" style="mix-blend-mode: normal"><g transform="scale(8,8)"><path d="M7,6v2h18v-2zM25,8v2h2v-2zM27,10v12h2v-12zM27,22h-2v2h2zM25,24h-18v2h18zM7,24v-2h-2v2zM5,22v-12h-2v12zM5,10h2v-2h-2zM13,12v8h2v-1h2v-1h2v-1h2v-2h-2v-1h-2v-1h-2v-1z"></path></g></g></svg>

<svg xmlns="http://www.w3.org/2000/svg"  viewBox="0 0 32 32" width="32px" height="32px"><path d="M 7 6 L 7 8 L 25 8 L 25 6 L 7 6 z M 25 8 L 25 10 L 27 10 L 27 8 L 25 8 z M 27 10 L 27 22 L 29 22 L 29 10 L 27 10 z M 27 22 L 25 22 L 25 24 L 27 24 L 27 22 z M 25 24 L 7 24 L 7 26 L 25 26 L 25 24 z M 7 24 L 7 22 L 5 22 L 5 24 L 7 24 z M 5 22 L 5 10 L 3 10 L 3 22 L 5 22 z M 5 10 L 7 10 L 7 8 L 5 8 L 5 10 z M 13 12 L 13 20 L 15 20 L 15 19 L 17 19 L 17 18 L 19 18 L 19 17 L 21 17 L 21 15 L 19 15 L 19 14 L 17 14 L 17 13 L 15 13 L 15 12 L 13 12 z"/></svg>
